X: 4761
T: Boys Of Coomanore, The
R: jig
M: 6/8
K: Dmajor
|:FGE FDD|cde dAG|~F3 FDD|FGE FAG|
FGE FDD|cde dAG|FGE FAG|1 EDC DAG:|
|:ABc dcd|fed ecA|ABc ~d3|fag fed|
ABc deg|fed edc|AGF EAG|1 FDD D2 B:|

